X:208
T:Trompet Hornpipe
O:No 208 Page 102 William Clarke of Feltwell
M:4/4
L:1/8
N:In bars A1, A3, A5, A8, B1, only one set of triplets shown (A8, first 3 notes).
N:Chance note values bar A2 from 2 semi-quavers, 2 quavers, 2 semi-quavers, 2 quavers in m.s. to 8 quavers.
N:Change last note on A music from crotchet in m.s. to minim.
K:G
(3GGG G2(3GGG G2|BGBd gdBG|(3DDD D2 (3DDD D2|FDFA dAFD|(3GGG G2(3GGG G2|BGBdg2f2|efgfe2d2|(3cde (3ABcd4::(3ddd d2(3ddd d2|edef gfga|gagf edcB|ABcA GFED|EGEG DGFG|EGFG DGFG|DGAB cdef|gedBG2G2:|

